X:1
T:Penshurst, LM
T:Penshurst, LM
T:Vincent Novello, 1836
T:Public Domain Courtesy of the Cyber Hymnal™
C:Vincent Novello, 1836
Z:Public Domain
Z:Courtesy of the Cyber Hymnal™
%%score ( 1 2 ) ( 3 4 )
L:1/8
M:3/4
K:C
V:1 treble 
V:2 treble 
V:3 bass 
V:4 bass 
V:1
 [CE]2 | A2 c2 [EB]2 | [Ec]2 [Ad]2 [Ge]2 | ed c2 z x3 | [CA]4 [EB]2 | [Ec]2 [Ad]2 [Ge]2 | %6
 A2 B2 [Ec]2 | [Fd]2 [Ec]2 [DB]2 | [Ec]4 [Ee]2 | e2 d2 [Ec]2 | [FB]2 [EA]2 ^G2 | A2 [EG]2 F2 | %12
 [B,E]4 [E^G]2 | [CA]2 [FB]2 c2 | [GB]2 [Fd]2 [Ec]2 | [Ec][DB] [CA]2 [B,^G]2 | [CA]4 |] %17
V:2
 x2 | E4 x2 | x6 | F2 E3 (B2 D) | x6 | x6 | F4 x2 | x6 | x6 | E4 x2 | x4 ED | CD x D C x | x6 | %13
 x4 E^F | x6 | x6 | x4 |] %17
V:3
 [A,,C]2 | A,4 [E,^G,]2 | z z [C,C]2 x2 | CB, [E,A,]2 [E,^G,]2 x2 | [A,,A,]4 [E,^G,]2 | %5
 A,2 z B, [C,C]2 | [F,C]2 [D,D]2 [A,C]2 | [F,A,]2 G,2 [G,,G,]2 | [C,G,]4 [C,G,]2 | %9
 [A,,C]2 [B,,B,]2 [C,A,]2 | [D,D]2 [E,C]2 [E,B,]2 | A,B, [C,C]2 B,A, | [E,^G,]4 [E,B,]2 | %13
 [F,A,][E,G,] [D,F,]2 G,A, | B,4 (A,^G,) | [D,F,]2 E,4 | [A,,E,]4 |] %17
V:4
 x2 | C,2 A,,2 x2 | (A,2 G,) (F,2 B,) | D,2 x6 | x6 | A,2 F,2 x2 | x6 | x2 G,2 x2 | x6 | x6 | x6 | %11
 F,2 x D,2 x | x6 | x4 C,2 | ^G,,2 G,,2 A,,2 | x2 E,4 | x4 |] %17

